X:30
T:A Long Time Ago (Shell Book)
M:4/4
L:1/8
Q:1/4=3D120
K:F
C2|\
C2D2 F2GG|A2GF D2FA|c4 d3c|cA3 z2G2|
F2D2 C2DF|G2Ac d3d |c4 A3G|F6||
